themes/asg/static/images/sponsors/axis.svg

<svg width="97" height="36" viewBox="0 0 97 36" fill="none" xmlns="http://www.w3.org/2000/svg">
<path d="M79.2279 0.48584L96.25 27.5276H81.4859L75.9277 18.6904H75.2329L74.8276 18.1012H68.2272L79.2279 0.48584Z" fill="white"/>
<path d="M78.1843 17.2173L84.6689 27.5273H63.9991L70.4259 17.2173H78.1843Z" fill="white"/>
<path d="M76.5065 17.2173L82.9912 27.5273H62.2635L68.7482 17.2173H76.5065Z" fill="white"/>
<path d="M40.3772 6.42773H45.1548C45.2131 6.42773 45.2131 6.48605 45.2131 6.48605V27.1877C45.2131 27.246 45.2131 27.246 45.1548 27.246H40.3772C40.3189 27.246 40.3189 27.1877 40.3189 27.1877V6.48605C40.3189 6.42774 40.3189 6.42773 40.3772 6.42773Z" fill="white"/>
<path d="M38.8037 6.42773C38.8037 6.42773 38.8619 6.48605 38.8037 6.48605L32.5112 16.6911C32.4529 16.8077 32.4529 16.9243 32.5112 16.9827L38.8619 27.1294C38.9202 27.1877 38.8619 27.246 38.8619 27.246H32.9773C32.919 27.246 32.8607 27.246 32.8607 27.1877L29.0736 20.948C29.0153 20.8897 29.0153 20.8897 28.9571 20.948L25.4029 27.1877C25.4029 27.246 25.3447 27.246 25.2282 27.246H19.6931C19.6348 27.246 19.6348 27.246 19.6348 27.1877L26.1021 16.5161C26.1604 16.3995 26.1604 16.2829 26.1021 16.1662L20.3923 6.54437C20.3923 6.48605 20.3922 6.48605 20.4505 6.48605H26.1604C26.2186 6.48605 26.2769 6.54437 26.2769 6.54437L29.7145 12.3758C29.7728 12.4341 29.7728 12.4341 29.831 12.3758L33.3851 6.54437C33.3851 6.48605 33.4434 6.48605 33.5016 6.48605L38.8037 6.42773Z" fill="white"/>
<path d="M13.2259 20.2468C13.2259 20.2468 13.1677 20.2468 13.2259 20.2468L9.67181 20.3051C9.67181 20.3051 9.61354 20.3051 9.67181 20.2468L13.3424 14.2987H13.4007L13.2259 20.2468ZM17.8288 6.42627H13.4007C13.3425 6.42627 13.2842 6.48459 13.2842 6.48459L0 27.1279V27.1862H5.41854C5.47681 27.1862 5.53508 27.1862 5.53508 27.1279L7.34125 24.3288C7.34125 24.2705 7.39952 24.2705 7.45778 24.2705H13.1094C13.1677 24.2705 13.1676 24.2705 13.1676 24.3288V27.1279C13.1676 27.1862 13.1677 27.1862 13.2259 27.1862H17.8288C17.887 27.1862 17.8871 27.1279 17.8871 27.1279V6.48459C17.9453 6.48459 17.887 6.42627 17.8288 6.42627Z" fill="white"/>
<path d="M48.0083 27.2454H54.2425C55.0582 27.2454 55.8157 27.0705 56.5731 26.8372C59.428 25.9042 61.0012 23.0468 61.0012 20.5976C61.0012 16.6905 57.9714 15.3493 54.3591 13.7748C53.7182 13.4832 52.9607 13.1333 52.9607 12.2586C52.9607 11.3839 53.7764 10.9174 54.7086 10.9174H59.6028C59.6611 10.9174 59.6611 10.8591 59.6611 10.8591V6.36886C59.6611 6.31055 59.6028 6.31055 59.6028 6.31055H54.4173C50.1058 6.31055 47.6005 8.87638 47.6005 12.4919C47.6005 15.6409 49.5814 17.157 52.4946 18.265C54.5339 19.0814 55.8157 19.4313 55.8157 21.0641C55.8157 21.9388 55.2913 22.7552 54.2425 22.7552H48.0083C48.0083 22.7552 47.95 22.7552 47.95 22.8135V27.1288C47.95 27.2454 48.0083 27.2454 48.0083 27.2454Z" fill="white"/>
<path d="M63.5994 9.56767C62.728 9.56767 62.0308 8.86982 62.0308 7.99751C62.0308 7.1252 62.728 6.42734 63.5994 6.42734C64.4708 6.42734 65.168 7.1252 65.168 7.99751C65.168 8.86982 64.4127 9.56767 63.5994 9.56767ZM63.5994 6.31104C62.6699 6.31104 61.8565 7.06704 61.8565 8.05566C61.8565 8.98613 62.6118 9.80029 63.5994 9.80029C64.5289 9.80029 65.3423 9.04428 65.3423 8.05566C65.2842 7.06704 64.5289 6.31104 63.5994 6.31104Z" fill="white"/>
<path d="M63.1925 7.93828V7.24043H63.7154C63.8316 7.24043 63.8897 7.24043 64.0059 7.29858C64.1221 7.35674 64.1221 7.47305 64.1221 7.58935C64.1221 7.70566 64.064 7.76382 64.0059 7.88013C63.8897 7.99643 63.7735 7.99644 63.6573 7.99644H63.1925V7.93828ZM64.4126 9.04321L64.0059 8.11274C64.2383 8.05459 64.4126 7.82197 64.4126 7.58935C64.4126 7.41489 64.3544 7.24043 64.1802 7.12412C64.064 7.00782 63.8897 7.00781 63.7154 7.00781H62.9601V9.04321H63.1925V8.1709H63.7735L64.1802 9.04321H64.4126Z" fill="white"/>
<path d="M4.17885 35.0677C3.65661 35.3663 3.13434 35.4858 2.55407 35.4858C0.929321 35.4858 0.174988 34.4108 0.174988 33.3955C0.174988 32.2609 1.10341 31.2456 2.67013 31.2456C3.19237 31.2456 3.71463 31.365 4.17885 31.6039V32.4997C3.77266 32.2609 3.25042 32.0817 2.72818 32.0817C1.85778 32.0817 1.21946 32.6192 1.21946 33.3358C1.21946 34.0525 1.85776 34.59 2.67013 34.59C3.19237 34.59 3.59858 34.4108 4.17885 34.1122V35.0677Z" fill="white"/>
<path d="M10.0973 32.08C9.28491 32.08 8.76267 32.5578 8.76267 33.3342C8.76267 34.1105 9.28491 34.5883 10.0973 34.5883C10.9097 34.5883 11.3739 34.1105 11.3739 33.3342C11.4319 32.5578 10.9097 32.08 10.0973 32.08ZM10.0973 35.4244C8.58859 35.4244 7.7182 34.3494 7.7182 33.2745C7.7182 32.2592 8.53056 31.1245 10.0973 31.1245C11.664 31.1245 12.4764 32.2592 12.4764 33.2745C12.4764 34.4091 11.606 35.4244 10.0973 35.4244Z" fill="white"/>
<path d="M19.5561 31.2441H20.4845V35.3649H19.4401V32.7969L18.3375 34.1107H18.1635L17.061 32.7969V35.3649H16.0165V31.2441H16.9449L18.2795 32.7969L19.5561 31.2441Z" fill="white"/>
<path d="M28.0873 31.2441H28.9577V35.3649H27.9132V32.7969L26.8107 34.1107H26.6366L25.5341 32.7969V35.3649H24.4896V31.2441H25.418L26.7526 32.7969L28.0873 31.2441Z" fill="white"/>
<path d="M36.8481 31.2441V33.5732C36.8481 34.9468 35.9196 35.4246 34.7591 35.4246C33.5406 35.4246 32.6702 34.8871 32.6702 33.5732V31.2441H33.7146V33.633C33.7146 34.2302 34.1208 34.5885 34.7591 34.5885C35.2814 34.5885 35.8036 34.2899 35.8036 33.5732V31.2441H36.8481Z" fill="white"/>
<path d="M44.7973 35.3649H43.9269L41.6639 32.7372V35.3649H40.6194V31.2441H41.5478L43.8109 33.8121V31.2441H44.7973V35.3649Z" fill="white"/>
<path d="M49.7294 31.2441H48.6849V35.3649H49.7294V31.2441Z" fill="white"/>
<path d="M57.1576 35.0677C56.6354 35.3663 56.1131 35.4858 55.5329 35.4858C53.9081 35.4858 53.1537 34.4108 53.1537 33.3955C53.1537 32.2609 54.0822 31.2456 55.6489 31.2456C56.1711 31.2456 56.6934 31.365 57.1576 31.6039V32.4997C56.7514 32.2609 56.2292 32.0817 55.7069 32.0817C54.8365 32.0817 54.1982 32.6192 54.1982 33.3358C54.1982 34.0525 54.8365 34.59 55.6489 34.59C56.1711 34.59 56.5773 34.4108 57.1576 34.1122V35.0677Z" fill="white"/>
<path d="M62.1475 32.2594L61.5672 33.8718H62.8438L62.1475 32.2594ZM64.5846 35.3649H63.4821L63.1339 34.5288H61.2771L60.9869 35.3649H59.8845L61.5672 31.2441H62.7858L64.5846 35.3649Z" fill="white"/>
<path d="M70.6189 32.0205H69.1102V35.3649H68.0657V32.0205H66.557V31.2441H70.6189V32.0205Z" fill="white"/>
<path d="M74.7981 31.2441H73.7536V35.3649H74.7981V31.2441Z" fill="white"/>
<path d="M80.2506 32.08C79.4382 32.08 78.916 32.5578 78.916 33.3342C78.916 34.1105 79.4382 34.5883 80.2506 34.5883C81.063 34.5883 81.5272 34.1105 81.5272 33.3342C81.5852 32.5578 81.063 32.08 80.2506 32.08ZM80.2506 35.4244C78.7419 35.4244 77.8715 34.3494 77.8715 33.2745C77.8715 32.2592 78.6839 31.1245 80.2506 31.1245C81.8173 31.1245 82.6297 32.2592 82.6297 33.2745C82.6297 34.4091 81.7593 35.4244 80.2506 35.4244Z" fill="white"/>
<path d="M89.8866 35.3649H89.0162L86.6951 32.7372V35.3649H85.7087V31.2441H86.6371L88.8421 33.8121V31.2441H89.8866V35.3649Z" fill="white"/>
<path d="M95.8601 32.3173C95.2798 32.0784 94.8736 31.959 94.5255 31.959C94.1773 31.959 93.9452 32.0784 93.9452 32.3173C93.9452 32.9145 96.0342 32.7951 96.0342 34.2284C96.0342 35.0047 95.3959 35.4825 94.4675 35.4825C93.7711 35.4825 93.365 35.3033 92.9588 35.0645V34.1686C93.539 34.5867 93.9452 34.7061 94.3514 34.7061C94.7576 34.7061 94.9317 34.5867 94.9317 34.2881C94.9317 33.6312 92.8427 33.87 92.8427 32.377C92.8427 31.6604 93.481 31.1826 94.4094 31.1826C94.8737 31.1826 95.3959 31.3021 95.8021 31.4812V32.3173H95.8601Z" fill="white"/>
</svg>

<svg width="97" height="36" fill="none" xmlns="http://www.w3.org/2000/svg"><path d="M79.228.486L96.25 27.528H81.486l-5.558-8.838h-.695l-.405-.589h-6.6l11-17.615z" fill="#fff"/><path d="M78.184 17.217l6.485 10.31h-20.67l6.427-10.31h7.758z" fill="#fff"/><path d="M76.507 17.217l6.484 10.31H62.264l6.484-10.31h7.758zM40.377 6.428h4.778c.058 0 .058.058.058.058v20.702c0 .058 0 .058-.058.058h-4.778c-.058 0-.058-.058-.058-.058V6.486c0-.058 0-.058.058-.058zm-1.573 0s.058.058 0 .058L32.51 16.691c-.058.117-.058.233 0 .292l6.35 10.146c.06.059 0 .117 0 .117h-5.884c-.058 0-.116 0-.116-.058l-3.787-6.24c-.059-.058-.059-.058-.117 0l-3.554 6.24c0 .058-.058.058-.175.058h-5.535c-.058 0-.058 0-.058-.058l6.467-10.672a.372.372 0 0 0 0-.35l-5.71-9.622c0-.058 0-.058.059-.058h5.71c.058 0 .116.058.116.058l3.438 5.832c.058.058.058.058.116 0l3.554-5.832c0-.058.058-.058.117-.058l5.302-.058zM13.226 20.247s-.058 0 0 0l-3.554.058s-.058 0 0-.058l3.67-5.948h.059l-.175 5.948zm4.603-13.82H13.4c-.059 0-.117.058-.117.058L0 27.128v.058h5.419c.058 0 .116 0 .116-.058l1.806-2.8c0-.058.059-.058.117-.058h5.651c.059 0 .059 0 .059.059v2.799c0 .058 0 .058.058.058h4.603c.058 0 .058-.058.058-.058V6.485c.058 0 0-.059-.058-.059zm30.179 20.818h6.234c.816 0 1.574-.175 2.331-.408 2.855-.933 4.428-3.79 4.428-6.24 0-3.907-3.03-5.248-6.642-6.822-.64-.292-1.398-.642-1.398-1.516 0-.875.815-1.342 1.748-1.342h4.894c.058 0 .058-.058.058-.058V6.37c0-.058-.058-.058-.058-.058h-5.186c-4.311 0-6.817 2.565-6.817 6.18 0 3.15 1.981 4.666 4.895 5.774 2.039.816 3.32 1.166 3.32 2.8 0 .874-.524 1.69-1.572 1.69h-6.235s-.058 0-.058.059v4.315c0 .116.058.116.058.116zM63.6 9.568a1.563 1.563 0 0 1-1.57-1.57c0-.873.698-1.57 1.57-1.57.87 0 1.568.697 1.568 1.57 0 .872-.755 1.57-1.569 1.57zm0-3.257a1.75 1.75 0 0 0-1.744 1.745c0 .93.756 1.744 1.743 1.744.93 0 1.743-.756 1.743-1.744-.058-.989-.813-1.745-1.743-1.745z" fill="#fff"/><path d="M63.193 7.938V7.24h.522c.117 0 .175 0 .29.059.117.058.117.174.117.29 0 .117-.058.175-.116.291-.116.116-.233.116-.349.116h-.464v-.058zm1.22 1.105l-.407-.93a.558.558 0 0 0 .407-.524.53.53 0 0 0-.233-.465c-.116-.116-.29-.116-.465-.116h-.755v2.035h.233v-.872h.58l.407.872h.233zM4.179 35.068a3.147 3.147 0 0 1-1.625.418c-1.625 0-2.379-1.075-2.379-2.09 0-1.135.928-2.15 2.495-2.15.522 0 1.045.119 1.509.358v.896c-.406-.24-.929-.418-1.45-.418-.871 0-1.51.537-1.51 1.254s.639 1.254 1.451 1.254c.522 0 .929-.18 1.509-.478v.956zm5.918-2.988c-.812 0-1.334.478-1.334 1.254s.522 1.254 1.334 1.254c.813 0 1.277-.477 1.277-1.254.058-.776-.464-1.254-1.277-1.254zm0 3.344c-1.508 0-2.379-1.075-2.379-2.15 0-1.015.813-2.15 2.38-2.15 1.566 0 2.378 1.135 2.378 2.15 0 1.135-.87 2.15-2.379 2.15zm9.459-4.18h.928v4.12H19.44v-2.567l-1.103 1.314h-.174l-1.102-1.314v2.568h-1.044v-4.12h.928l1.334 1.552 1.277-1.553zm8.531 0h.87v4.12h-1.044v-2.567l-1.102 1.314h-.174l-1.103-1.314v2.568H24.49v-4.12h.928l1.335 1.552 1.334-1.553zm8.761 0v2.33c0 1.373-.928 1.85-2.089 1.85-1.218 0-2.089-.537-2.089-1.85v-2.33h1.045v2.389c0 .597.406.956 1.044.956.522 0 1.045-.3 1.045-1.016v-2.329h1.044zm7.949 4.121h-.87l-2.263-2.628v2.628h-1.045v-4.12h.929l2.263 2.567v-2.568h.986v4.12zm4.933-4.121h-1.045v4.12h1.044v-4.12zm7.428 3.824a3.146 3.146 0 0 1-1.625.418c-1.625 0-2.38-1.075-2.38-2.09 0-1.135.93-2.15 2.496-2.15a3.31 3.31 0 0 1 1.509.358v.896c-.407-.24-.929-.418-1.451-.418-.87 0-1.509.537-1.509 1.254s.639 1.254 1.45 1.254c.523 0 .93-.18 1.51-.478v.956zm4.99-2.808l-.58 1.612h1.276l-.697-1.613zm2.437 3.105h-1.103l-.348-.836h-1.857l-.29.836h-1.102l1.682-4.12h1.219l1.799 4.12zm6.034-3.345H69.11v3.345h-1.044V32.02h-1.509v-.776h4.062v.776zm4.179-.776h-1.044v4.12h1.044v-4.12zm5.452.836c-.812 0-1.334.478-1.334 1.254s.522 1.254 1.335 1.254c.812 0 1.276-.477 1.276-1.254.058-.776-.464-1.254-1.276-1.254zm0 3.344c-1.508 0-2.379-1.075-2.379-2.15 0-1.015.813-2.15 2.38-2.15 1.566 0 2.379 1.135 2.379 2.15 0 1.135-.87 2.15-2.38 2.15zm9.637-.059h-.87l-2.322-2.628v2.628h-.986v-4.12h.928l2.205 2.567v-2.568h1.045v4.12zm5.973-3.048c-.58-.239-.986-.358-1.335-.358-.348 0-.58.12-.58.358 0 .597 2.09.478 2.09 1.911 0 .777-.64 1.255-1.567 1.255-.697 0-1.103-.18-1.51-.418v-.896c.581.418.987.537 1.393.537.407 0 .58-.12.58-.418 0-.657-2.088-.418-2.088-1.911 0-.717.638-1.194 1.566-1.194.465 0 .987.12 1.393.298v.836h.058z" fill="#fff"/></svg>
